app/assets/images/icons/internet-s.svg

<svg enable-background="new 0 0 100 100" id="internet-s" version="1.1" viewBox="0 0 100 100" x="0px" xml:space="preserve" xmlns="http://www.w3.org/2000/svg" xmlns:xlink="http://www.w3.org/1999/xlink" y="0px">
  <path
     d="M 57.699219 0 L 57.699219 8.0996094 L 65.800781 8.0996094 L 65.800781 0 L 57.699219 0 z M 49.699219 0.5 C 22.299219 0.5 4.7369516e-15 22.799219 0 50.199219 C 0 77.599219 22.300781 100 49.800781 100 L 51.900391 100 C 78.400391 98.9 99.599609 77.000391 99.599609 50.400391 L 99.599609 48.300781 L 51.800781 48.300781 L 51.800781 0.5 L 49.699219 0.5 z M 47.900391 4.8007812 L 47.900391 48.199219 L 27.900391 48.199219 C 28.400391 25.899219 37.300391 7.0007812 47.900391 4.8007812 z M 38 6 C 30.1 13.9 24.499219 29.599219 24.199219 48.199219 L 4.1992188 48.199219 C 5.0992188 27.699219 19.2 10.9 38 6 z M 73.5 6.5 L 73.5 14.599609 L 81.599609 14.599609 L 81.599609 6.5 L 73.5 6.5 z M 85.699219 18.400391 L 85.699219 26.5 L 93.800781 26.5 L 93.800781 18.400391 L 85.699219 18.400391 z M 91.900391 34.199219 L 91.900391 42.300781 L 100 42.300781 L 100 34.199219 L 91.900391 34.199219 z M 4.3007812 52.099609 L 24.300781 52.099609 C 24.600781 70.499609 30.000391 86.199609 37.900391 94.099609 C 19.000391 89.199609 5.1007812 72.399609 4.3007812 52.099609 z M 51.800781 52.099609 L 71.800781 52.099609 C 71.300781 74.399609 62.400781 93.3 51.800781 95.5 L 51.800781 52.099609 z M 76 52.099609 L 95.599609 52.099609 C 94.599609 72.199609 80.899219 88.999609 62.199219 94.099609 C 70.099219 86.199609 75.7 70.499609 76 52.099609 z M 27.900391 52.199219 L 47.900391 52.199219 L 47.900391 95.599609 C 37.300391 93.399609 28.400391 74.499219 27.900391 52.199219 z "
     id="path3" /></svg>

<?xml version="1.0" encoding="utf-8"?>
<svg enable-background="new 0 0 100 100" id="internet-s" version="1.1" viewBox="0 0 100 100" x="0px" xml:space="preserve" xmlns="http://www.w3.org/2000/svg" xmlns:xlink="http://www.w3.org/1999/xlink" y="0px">
  <path d="M51.8,0.5h-2.1C22.3,0.5,0,22.8,0,50.2S22.3,100,49.8,100h2.1c26.5-1.1,47.7-23,47.7-49.6v-2.1H51.8V0.5z M38,6   c-7.9,7.9-13.5,23.6-13.8,42.2h-20C5.1,27.7,19.2,10.9,38,6z M4.3,52.1h20c0.3,18.4,5.7,34.1,13.6,42C19,89.2,5.1,72.4,4.3,52.1z    M47.9,95.6c-10.6-2.2-19.5-21.1-20-43.4h20C47.9,73.9,47.9,95.4,47.9,95.6z M47.9,48.2h-20c0.5-22.3,9.4-41.2,20-43.4   C47.9,4.9,47.9,26.5,47.9,48.2z M95.6,52.1c-1,20.1-14.7,36.9-33.4,42c7.9-7.9,13.5-23.6,13.8-42H95.6z M71.8,52.1   c-0.5,22.3-9.4,41.2-20,43.4V52.1H71.8z"/>
  <rect height="8.1" width="8.1" x="57.7" y="0"/>
  <rect height="8.1" width="8.1" x="73.5" y="6.5"/>
  <rect height="8.1" width="8.1" x="85.7" y="18.4"/>
  <rect height="8.1" width="8.1" x="91.9" y="34.2"/>
</svg>
